packages/icons/svg/Fill/pin.svg

<svg fill="none" height="24" viewBox="0 0 24 24" width="24" xmlns="http://www.w3.org/2000/svg"><path clip-rule="evenodd" d="m12 8c-.827 0-1.5.673-1.5 1.5s.673 1.5 1.5 1.5 1.5-.673 1.5-1.5-.673-1.5-1.5-1.5zm0 4.9999c-1.93 0-3.50002-1.57-3.50002-3.49997 0-1.93 1.57002-3.5 3.50002-3.5s3.5 1.57 3.5 3.5c0 1.92997-1.57 3.49997-3.5 3.49997zm0-10.9999c-4.41102 0-8.00002 3.554-8.00002 7.923 0 5.474 7.04902 11.579 7.34902 11.836.188.161.419.241.651.241s.463-.08.651-.241c.3-.257 7.349-6.362 7.349-11.836 0-4.369-3.589-7.923-8-7.923z" fill="#6b7280" fill-rule="evenodd"/></svg>

<svg width="24" height="24" viewBox="0 0 24 24" fill="none" xmlns="http://www.w3.org/2000/svg">
<g id="Icon/Fill/pin">
<path id="Mask" fill-rule="evenodd" clip-rule="evenodd" d="M12 8C11.173 8 10.5 8.673 10.5 9.5C10.5 10.327 11.173 11 12 11C12.827 11 13.5 10.327 13.5 9.5C13.5 8.673 12.827 8 12 8ZM12 13C10.07 13 8.5 11.43 8.5 9.5C8.5 7.57 10.07 6 12 6C13.93 6 15.5 7.57 15.5 9.5C15.5 11.43 13.93 13 12 13ZM12 2C7.589 2 4 5.554 4 9.923C4 15.397 11.049 21.502 11.349 21.759C11.537 21.92 11.768 22 12 22C12.232 22 12.463 21.92 12.651 21.759C12.951 21.502 20 15.397 20 9.923C20 5.554 16.411 2 12 2Z" fill="#000000"/>
</g>
</svg>
